dist/icons/svgs/trash-outline.svg

<svg xmlns="http://www.w3.org/2000/svg" width="24" height="24" fill="currentcolor" class="icon-trash-outline" viewBox="0 0 24 24">
  <path d="M10.1641 3.875C10.0469 3.875 9.96875 3.95312 9.89062 4.03125L9.14844 5.125H14.8125L14.0703 4.03125C14.0312 3.95312 13.9141 3.875 13.7969 3.875H10.1641ZM17.0781 5.125H17.5859H19.5H19.8125C20.3203 5.125 20.75 5.55469 20.75 6.0625C20.75 6.60938 20.3203 7 19.8125 7H19.3438L18.4062 19.6953C18.2891 21.0234 17.2344 22 15.9062 22H8.05469C6.72656 22 5.67188 21.0234 5.55469 19.6953L4.61719 7H4.1875C3.64062 7 3.25 6.60938 3.25 6.0625C3.25 5.55469 3.64062 5.125 4.1875 5.125H4.5H6.375H6.88281L8.32812 2.97656C8.71875 2.39062 9.42188 2 10.1641 2H13.7969C14.5391 2 15.2422 2.39062 15.6328 2.97656L17.0781 5.125ZM17.4688 7H6.49219L7.42969 19.5781C7.46875 19.8906 7.74219 20.125 8.05469 20.125H15.9062C16.2188 20.125 16.4922 19.8906 16.5312 19.5781L17.4688 7Z"/>
</svg>

<svg xmlns="http://www.w3.org/2000/svg" width="24" height="24" fill="currentColor" class="icon-trash-outline" viewBox="0 0 24 24">
  <path d="M10.164 3.875c-.117 0-.195.078-.273.156l-.743 1.094h5.665l-.743-1.094a.33.33 0 0 0-.273-.156zm6.914 1.25h2.735a.95.95 0 0 1 .937.938c0 .546-.43.937-.937.937h-.47l-.937 12.695C18.29 21.023 17.234 22 15.906 22H8.055c-1.328 0-2.383-.977-2.5-2.305L4.617 7h-.43c-.546 0-.937-.39-.937-.937 0-.508.39-.938.938-.938h2.695l1.445-2.148A2.24 2.24 0 0 1 10.164 2h3.633c.742 0 1.445.39 1.836.977zM17.468 7H6.493l.938 12.578a.63.63 0 0 0 .625.547h7.851a.63.63 0 0 0 .625-.547z"/>
</svg>
